X:1
T:Title
%%score { 1 | ( 2 3 ) }
L:1/8
M:9/8
K:Ab
V:1 treble nm="Grand Piano"
V:2 bass 
V:3 bass 
V:1
 z3 z3[Q:1/4=100] EFE | A3 [Ec]3 [Ac]B[FA] | [GB]6 EFE | [GB]3 [Bd]3 [Bd]c[GB] |[M:3/4] [Ac]6 | %5
[M:3/8] [Ac][GB][Ac] |[M:9/8] [ce]3 [Ac]3 [GB]2 [FA] | [DF]6 [GB][FA][DF] | %8
 [CE]3 [EA]3 [EAc]2 [GB] |[M:3/4] [Ac]6 |[M:3/8] [Ac][GB][Ac] |[M:9/8] [ce]3 [Ac]3 [GB]2 A | %12
[M:21/16] [Af]3/2-[Af]3/2-[Af]3/2- [Af]3 [Fd][Ec]/-[Ec]/B |[M:9/8] A3 E3 c2 B |[M:3/4] [CA]6 |] %15
V:2
 z3 z3 [A,C][A,D][A,C] | [A,C]3 A,,3 z[K:treble] GA, | E,6 E,[E,E]E, | E,3 E,3 z GE, |[M:3/4] A,6 | %5
[M:3/8] A,A,A, |[M:9/8] A,3 A,3 C,2 C, | D,6 D,D,D, | A,,3 C,3 E,2 E, |[M:3/4] A,6 | %10
[M:3/8] A,A,A, |[M:9/8] A,3 A,3 E,2 F, |[M:21/16] D,3/2-D,3/2-D,3/2- D,3 D,D,/-D,/[D,D] | %13
[M:9/8] [E,C]3 [E,C]3 [E,E]2 [E,D] |[M:3/4] [A,,A,]6 |] %15
V:3
 x9 | z3 z3 .A,3[K:treble] | x9 | z3 z3 .E,3 |[M:3/4] x6 |[M:3/8] x3 |[M:9/8] x9 | x9 | x9 | %9
[M:3/4] x6 |[M:3/8] x3 |[M:9/8] x9 |[M:21/16] x21/2 |[M:9/8] x9 |[M:3/4] x6 |] %15

